build/img/btn-light.svg

<svg width="40" height="41" viewBox="0 0 40 41" fill="none" xmlns="http://www.w3.org/2000/svg">
<g filter="url(#filter0_d_1450_87061)">
<mask id="path-1-inside-1_1450_87061" fill="white">
<path d="M0 8C0 3.58172 3.58172 0 8 0H30C34.4183 0 38 3.58172 38 8V30C38 34.4183 34.4183 38 30 38H8C3.58172 38 0 34.4183 0 30V8Z"/>
</mask>
<path d="M0 8C0 3.58172 3.58172 0 8 0H30C34.4183 0 38 3.58172 38 8V30C38 34.4183 34.4183 38 30 38H8C3.58172 38 0 34.4183 0 30V8Z" fill="#DEE5EE"/>
<path d="M8 2H30V-2H8V2ZM36 8V30H40V8H36ZM30 36H8V40H30V36ZM2 30V8H-2V30H2ZM8 36C4.68629 36 2 33.3137 2 30H-2C-2 35.5228 2.47715 40 8 40V36ZM36 30C36 33.3137 33.3137 36 30 36V40C35.5228 40 40 35.5228 40 30H36ZM30 2C33.3137 2 36 4.68629 36 8H40C40 2.47715 35.5228 -2 30 -2V2ZM8 -2C2.47715 -2 -2 2.47715 -2 8H2C2 4.68629 4.68629 2 8 2V-2Z" fill="url(#paint0_linear_1450_87061)" mask="url(#path-1-inside-1_1450_87061)"/>
</g>
<path d="M5.61663 12.075C5.61651 8.45587 5.61663 6.08975 11.8811 6.08975" stroke="#E7EEF7" stroke-width="3" stroke-linecap="round"/>
<defs>
<filter id="filter0_d_1450_87061" x="0" y="0" width="40" height="41" filterUnits="userSpaceOnUse" color-interpolation-filters="sRGB">
<feFlood flood-opacity="0" result="BackgroundImageFix"/>
<feColorMatrix in="SourceAlpha" type="matrix" values="0 0 0 0 0 0 0 0 0 0 0 0 0 0 0 0 0 0 127 0" result="hardAlpha"/>
<feOffset dx="2" dy="3"/>
<feComposite in2="hardAlpha" operator="out"/>
<feColorMatrix type="matrix" values="0 0 0 0 0.641585 0 0 0 0 0.752635 0 0 0 0 0.821667 0 0 0 1 0"/>
<feBlend mode="normal" in2="BackgroundImageFix" result="effect1_dropShadow_1450_87061"/>
<feBlend mode="normal" in="SourceGraphic" in2="effect1_dropShadow_1450_87061" result="shape"/>
</filter>
<linearGradient id="paint0_linear_1450_87061" x1="38" y1="56" x2="22.325" y2="-40.28" gradientUnits="userSpaceOnUse">
<stop stop-color="#D6E0E6"/>
<stop offset="0.445833" stop-color="#D6E1E8" stop-opacity="0"/>
<stop offset="0.771784" stop-color="#F4FBFF"/>
</linearGradient>
</defs>
</svg>

<svg width="40" height="41" fill="none" xmlns="http://www.w3.org/2000/svg"><g filter="url(#filter0_d_1450_87061)"><mask id="a" fill="#fff"><path d="M0 8a8 8 0 018-8h22a8 8 0 018 8v22a8 8 0 01-8 8H8a8 8 0 01-8-8V8z"/></mask><path d="M0 8a8 8 0 018-8h22a8 8 0 018 8v22a8 8 0 01-8 8H8a8 8 0 01-8-8V8z" fill="#DEE5EE"/><path d="M8 2h22v-4H8v4zm28 6v22h4V8h-4zm-6 28H8v4h22v-4zM2 30V8h-4v22h4zm6 6a6 6 0 01-6-6h-4c0 5.523 4.477 10 10 10v-4zm28-6a6 6 0 01-6 6v4c5.523 0 10-4.477 10-10h-4zM30 2a6 6 0 016 6h4c0-5.523-4.477-10-10-10v4zM8-2C2.477-2-2 2.477-2 8h4a6 6 0 016-6v-4z" fill="url(#paint0_linear_1450_87061)" mask="url(#a)"/></g><path d="M5.617 12.075c0-3.62 0-5.985 6.264-5.985" stroke="#E7EEF7" stroke-width="3" stroke-linecap="round"/><defs><linearGradient id="paint0_linear_1450_87061" x1="38" y1="56" x2="22.325" y2="-40.28" gradientUnits="userSpaceOnUse"><stop stop-color="#D6E0E6"/><stop offset=".446" stop-color="#D6E1E8" stop-opacity="0"/><stop offset=".772" stop-color="#F4FBFF"/></linearGradient><filter id="filter0_d_1450_87061" x="0" y="0" width="40" height="41" filterUnits="userSpaceOnUse" color-interpolation-filters="sRGB"><feFlood flood-opacity="0" result="BackgroundImageFix"/><feColorMatrix in="SourceAlpha" values="0 0 0 0 0 0 0 0 0 0 0 0 0 0 0 0 0 0 127 0" result="hardAlpha"/><feOffset dx="2" dy="3"/><feComposite in2="hardAlpha" operator="out"/><feColorMatrix values="0 0 0 0 0.641585 0 0 0 0 0.752635 0 0 0 0 0.821667 0 0 0 1 0"/><feBlend in2="BackgroundImageFix" result="effect1_dropShadow_1450_87061"/><feBlend in="SourceGraphic" in2="effect1_dropShadow_1450_87061" result="shape"/></filter></defs></svg>
